X: 7994
T: Connaught Heifers, The
R: reel
M: 4/4
K: Dmajor
F3G A2BG|A2BG AGFD|FEFG AG G2|DG G2 =cAAG|
FEFG A2BG|A2BG AGFD|FEFG AG G2|DG G2 =cAAg||
fgef d2cA|A2BG ABdg|fgef d2cA|BG G2 AGFD|
fgef d2cA|A2BG ABde|fdef d2 cA|BG G2 AGFD||

